symbols/web/rate_review/materialsymbolssharp/rate_review_wght500grad200fill1_24px.svg

<svg xmlns="http://www.w3.org/2000/svg" height="24" width="24"><path d="M11.225 14h7.125v-2.55h-4.575ZM5.45 14H8.5l6.55-6.5-3.1-3.1-6.5 6.55Zm-4.325 9.1V.85h21.75v17.7h-17.2Z"/></svg>

<svg xmlns="http://www.w3.org/2000/svg" height="24" width="24"><path d="M11.225 14H18.35V11.45H13.775ZM5.45 14H8.5L15.05 7.5L11.95 4.4L5.45 10.95ZM1.125 23.1V0.85H22.875V18.55H5.675Z"/></svg>
